actions/symbolic/pane-show-symbolic-rtl.svg

<?xml version="1.0" encoding="UTF-8" standalone="no"?>
<svg
   height="16"
   width="16"
   version="1.1"
   id="svg6"
   xml:space="preserve"
   xmlns="http://www.w3.org/2000/svg"
   xmlns:svg="http://www.w3.org/2000/svg"><defs
     id="defs10" /><path
     id="rect520-6-7-9-0-2-8-5"
     style="fill:#555761;stroke-width:0.999997;stop-color:#000000"
     d="M 13.5,2 C 14.330999,2 15,2.669004 15,3.5 v 9 C 15,13.330995 14.330999,14 13.5,14 H 9.25 C 9.1115001,14 9,13.8885 9,13.75 v -0.5 C 9,13.1115 9.1115001,13 9.25,13 h 4.25 c 0.277,0 0.5,-0.223 0.5,-0.5 v -9 C 14,3.2230015 13.777,3 13.5,3 H 9.25 C 9.1115001,3 9,2.8884996 9,2.75 V 2.25 C 9,2.1115004 9.1115001,2 9.25,2 Z M 5.515625,5 c 0.15493,0 0.293742,0.057565 0.388672,0.1503906 l 2.9531249,2.546875 C 8.9451118,7.7778934 9,7.8862237 9,8.0058594 9,8.1254945 8.9451618,8.2338253 8.8574219,8.3144531 L 5.904297,10.849609 C 5.809377,10.942426 5.670555,11 5.515625,11 5.228145,11 4.995654,10.798236 4.996094,10.548828 L 5,9 1.513672,9.0175781 C 1.226192,9.0178241 1,8.6986278 1,8.4492188 V 7.5507812 C 1,7.3013724 1.265275,7.0100985 1.552734,7.0078125 l 3.41211,-0.027344 0.03125,-1.5292969 C 4.996094,5.2017629 5.228145,5 5.515625,5 Z" /></svg>

<svg
        xmlns='http://www.w3.org/2000/svg'
        xmlns:svg='http://www.w3.org/2000/svg'
        id='svg6'
        width='16'
        height='16'>
  <path
          id='rect520-6-7-9-0-2-8-5'
          fill='url(#gpa:foreground) #555761'
          fill-opacity='1'
          fill-rule='nonzero'
          stroke-width='0.999997'
          d='M 13.5 2 C 14.331 2, 15 2.669, 15 3.5 L 15 12.5 C 15 13.331, 14.331 14, 13.5 14 L 9.25 14 C 9.1115 14, 9 13.8885, 9 13.75 L 9 13.25 C 9 13.1115, 9.1115 13, 9.25 13 L 13.5 13 C 13.777 13, 14 12.777, 14 12.5 L 14 3.5 C 14 3.223, 13.777 3, 13.5 3 L 9.25 3 C 9.1115 3, 9 2.8885, 9 2.75 L 9 2.25 C 9 2.1115, 9.1115 2, 9.25 2 Z M 5.51562 5 C 5.67056 5, 5.80937 5.05757, 5.9043 5.15039 L 8.85742 7.69727 C 8.94511 7.77789, 9 7.88622, 9 8.00586 C 9 8.12549, 8.94516 8.23383, 8.85742 8.31445 L 5.9043 10.8496 C 5.80938 10.9424, 5.67056 11, 5.51562 11 C 5.22815 11, 4.99565 10.7982, 4.99609 10.5488 L 5 9 L 1.51367 9.01758 C 1.22619 9.01782, 1 8.69863, 1 8.44922 L 1 7.55078 C 1 7.30137, 1.26528 7.0101, 1.55273 7.00781 L 4.96484 6.98047 L 4.99609 5.45117 C 4.99609 5.20176, 5.22815 5, 5.51562 5 Z'
          class="foreground">
  </path>
</svg>
